X: 080267
T: Harsh February
S: Phil Cunningham
Z: B.Black
R: reel
M: 4/4
L: 1/8
K: D
D | FABd B2 AF | ABdf e2 de | f2 ed BddB |\
ABdA FE E2 |
FABd B2 AF | ABdf e2 de | b2 fb afef |\
afef d3 :|
f/a/ | b3 f a2 fe | defd edBA | FABd FABd |\
afde fe e2 |
b3 f a2 fe | defd edBA | FABd FABd |\
afef d3 :|
